assets/layers/charging_station/Type3c.svg

<?xml version="1.0" encoding="UTF-8" standalone="no"?>
<svg
        xmlns:dc="http://purl.org/dc/elements/1.1/"
        xmlns:cc="http://creativecommons.org/ns#"
        xmlns:rdf="http://www.w3.org/1999/02/22-rdf-syntax-ns#"
        xmlns:sodipodi="http://sodipodi.sourceforge.net/DTD/sodipodi-0.dtd"
        xmlns:inkscape="http://www.inkscape.org/namespaces/inkscape"
        xmlns="http://www.w3.org/2000/svg"
        width="60"
        height="60"
        version="1.1"
        id="svg876"
        sodipodi:docname="Type 3c.svg"
        inkscape:version="0.92.4 (5da689c313, 2019-01-14)">
    <metadata
            id="metadata882">
        <rdf:RDF>
            <cc:Work
                    rdf:about="">
                <dc:format>image/svg+xml</dc:format>
                <dc:type
                        rdf:resource="http://purl.org/dc/dcmitype/StillImage"/>
                <dc:title/>
                <cc:license
                        rdf:resource="http://creativecommons.org/licenses/by/4.0/"/>
                <dc:creator>
                    <cc:Agent>
                        <dc:title>Yves Pratter</dc:title>
                    </cc:Agent>
                </dc:creator>
            </cc:Work>
            <cc:License
                    rdf:about="http://creativecommons.org/licenses/by/4.0/">
                <cc:permits
                        rdf:resource="http://creativecommons.org/ns#Reproduction"/>
                <cc:permits
                        rdf:resource="http://creativecommons.org/ns#Distribution"/>
                <cc:requires
                        rdf:resource="http://creativecommons.org/ns#Notice"/>
                <cc:requires
                        rdf:resource="http://creativecommons.org/ns#Attribution"/>
                <cc:permits
                        rdf:resource="http://creativecommons.org/ns#DerivativeWorks"/>
            </cc:License>
        </rdf:RDF>
    </metadata>
    <defs
            id="defs880"/>
    <sodipodi:namedview
            pagecolor="#ffffff"
            bordercolor="#666666"
            borderopacity="1"
            objecttolerance="10"
            gridtolerance="10"
            guidetolerance="10"
            inkscape:pageopacity="0"
            inkscape:pageshadow="2"
            inkscape:window-width="1600"
            inkscape:window-height="837"
            id="namedview878"
            showgrid="true"
            fit-margin-top="0"
            fit-margin-left="0"
            fit-margin-right="0"
            fit-margin-bottom="0"
            inkscape:zoom="11.15"
            inkscape:cx="13.946188"
            inkscape:cy="30"
            inkscape:window-x="-8"
            inkscape:window-y="-8"
            inkscape:window-maximized="1"
            inkscape:current-layer="svg876">
        <inkscape:grid
                type="xygrid"
                id="grid820"/>
    </sodipodi:namedview>
    <g
            id="g1522"
            transform="matrix(0.75444887,0,0,0.75444887,48.746137,14.015914)">
        <path
                sodipodi:nodetypes="csccscc"
                inkscape:connector-curvature="0"
                id="path1438-5"
                d="m -5.965395,29.423729 c 0,10.428275 -8.453788,18.882063 -18.882063,18.882063 -10.428275,0 -18.882063,-8.453788 -18.882063,-18.882063 V 12.949153 c 0,-10.4282754 8.453788,-18.882063 18.882063,-18.882063 10.428275,0 18.882063,8.4537876 18.882063,18.882063 z"
                style="fill:none;fill-opacity:1;stroke:#000000;stroke-width:2;stroke-linecap:round;stroke-linejoin:round;stroke-miterlimit:4;stroke-dasharray:none;stroke-opacity:1"/>
        <path
                inkscape:connector-curvature="0"
                id="path1457"
                d="m -33.823223,29.500001 a 1.5242352,1.5242352 0 0 1 -1.524235,1.524235 1.5242352,1.5242352 0 0 1 -1.524236,-1.524235 1.5242352,1.5242352 0 0 1 1.524236,-1.524236 1.5242352,1.5242352 0 0 1 1.524235,1.524236 z"
                style="opacity:1;fill:#000000;fill-opacity:1;stroke:#000000;stroke-width:1.93477261;stroke-linecap:round;stroke-linejoin:round;stroke-miterlimit:4;stroke-dasharray:none;stroke-opacity:1"/>
        <path
                id="path1457-2"
                d="m -12.577459,29.500002 a 1.5242352,1.5242352 0 0 1 -1.524235,1.524235 1.5242352,1.5242352 0 0 1 -1.524236,-1.524235 1.5242352,1.5242352 0 0 1 1.524236,-1.524236 1.5242352,1.5242352 0 0 1 1.524235,1.524236 z"
                style="opacity:1;fill:#000000;fill-opacity:1;stroke:#000000;stroke-width:1.93477261;stroke-linecap:round;stroke-linejoin:round;stroke-miterlimit:4;stroke-dasharray:none;stroke-opacity:1"
                inkscape:connector-curvature="0"/>
        <path
                id="path1457-25"
                d="m -23.20034,40.20339 a 1.5242352,1.5242352 0 0 1 -1.524235,1.524235 1.5242352,1.5242352 0 0 1 -1.524236,-1.524235 1.5242352,1.5242352 0 0 1 1.524236,-1.524236 1.5242352,1.5242352 0 0 1 1.524235,1.524236 z"
                style="opacity:1;fill:#000000;fill-opacity:1;stroke:#000000;stroke-width:1.93477261;stroke-linecap:round;stroke-linejoin:round;stroke-miterlimit:4;stroke-dasharray:none;stroke-opacity:1"
                inkscape:connector-curvature="0"/>
        <path
                id="path1457-6"
                d="m -33.823223,15.932204 a 1.5242352,1.5242352 0 0 1 -1.524235,1.524235 1.5242352,1.5242352 0 0 1 -1.524236,-1.524235 1.5242352,1.5242352 0 0 1 1.524236,-1.524236 1.5242352,1.5242352 0 0 1 1.524235,1.524236 z"
                style="opacity:1;fill:#000000;fill-opacity:1;stroke:#000000;stroke-width:1.93477261;stroke-linecap:round;stroke-linejoin:round;stroke-miterlimit:4;stroke-dasharray:none;stroke-opacity:1"
                inkscape:connector-curvature="0"/>
        <path
                id="path1457-7"
                d="m -12.577459,15.932204 a 1.5242352,1.5242352 0 0 1 -1.524235,1.524234 1.5242352,1.5242352 0 0 1 -1.524236,-1.524234 1.5242352,1.5242352 0 0 1 1.524236,-1.524236 1.5242352,1.5242352 0 0 1 1.524235,1.524236 z"
                style="opacity:1;fill:#000000;fill-opacity:1;stroke:#000000;stroke-width:1.93477261;stroke-linecap:round;stroke-linejoin:round;stroke-miterlimit:4;stroke-dasharray:none;stroke-opacity:1"
                inkscape:connector-curvature="0"/>
        <path
                id="path1457-29"
                d="m -34.300176,5.7457629 a 1.0472821,1.0472821 0 0 1 -1.047282,1.047282 1.0472821,1.0472821 0 0 1 -1.047283,-1.047282 1.0472821,1.0472821 0 0 1 1.047283,-1.0472826 1.0472821,1.0472821 0 0 1 1.047282,1.0472826 z"
                style="opacity:1;fill:#000000;fill-opacity:1;stroke:#000000;stroke-width:1.32935703;stroke-linecap:round;stroke-linejoin:round;stroke-miterlimit:4;stroke-dasharray:none;stroke-opacity:1"
                inkscape:connector-curvature="0"/>
        <path
                id="path1457-29-9"
                d="m -13.054412,5.7457629 a 1.0472821,1.0472821 0 0 1 -1.047282,1.047282 1.0472821,1.0472821 0 0 1 -1.047283,-1.047282 1.0472821,1.0472821 0 0 1 1.047283,-1.0472826 1.0472821,1.0472821 0 0 1 1.047282,1.0472826 z"
                style="opacity:1;fill:#000000;fill-opacity:1;stroke:#000000;stroke-width:1.32935703;stroke-linecap:round;stroke-linejoin:round;stroke-miterlimit:4;stroke-dasharray:none;stroke-opacity:1"
                inkscape:connector-curvature="0"/>
    </g>
</svg>

<?xml version="1.0" encoding="UTF-8" standalone="yes"?>
<svg xmlns="http://www.w3.org/2000/svg" xmlns:xlink="http://www.w3.org/1999/xlink" width="375px" height="375px" viewBox="0 0 375 375" version="1.1">
  <g id="surface1">
    <path style="fill:none;stroke-width:2;stroke-linecap:round;stroke-linejoin:round;stroke:rgb(0%,0%,0%);stroke-opacity:1;stroke-miterlimit:4;" d="M -5.965296 29.423413 C -5.965296 39.852383 -14.419314 48.305573 -24.847456 48.305573 C -35.275598 48.305573 -43.729617 39.852383 -43.729617 29.423413 L -43.729617 12.949467 C -43.729617 2.520497 -35.275598 -5.932693 -24.847456 -5.932693 C -14.419314 -5.932693 -5.965296 2.520497 -5.965296 12.949467 Z M -5.965296 29.423413 " transform="matrix(4.715306,0,0,4.715306,304.663348,87.599462)"/>
    <path style="fill-rule:nonzero;fill:rgb(0%,0%,0%);fill-opacity:1;stroke-width:1.934773;stroke-linecap:round;stroke-linejoin:round;stroke:rgb(0%,0%,0%);stroke-opacity:1;stroke-miterlimit:4;" d="M -33.823379 29.499627 C -33.823379 30.34213 -34.505996 31.023919 -35.34767 31.023919 C -36.189344 31.023919 -36.871962 30.34213 -36.871962 29.499627 C -36.871962 28.657953 -36.189344 27.976164 -35.34767 27.976164 C -34.505996 27.976164 -33.823379 28.657953 -33.823379 29.499627 Z M -33.823379 29.499627 " transform="matrix(4.715306,0,0,4.715306,304.663348,87.599462)"/>
    <path style="fill-rule:nonzero;fill:rgb(0%,0%,0%);fill-opacity:1;stroke-width:1.934773;stroke-linecap:round;stroke-linejoin:round;stroke:rgb(0%,0%,0%);stroke-opacity:1;stroke-miterlimit:4;" d="M -12.577738 29.499627 C -12.577738 30.34213 -13.259527 31.023919 -14.10203 31.023919 C -14.943704 31.023919 -15.626321 30.34213 -15.626321 29.499627 C -15.626321 28.657953 -14.943704 27.976164 -14.10203 27.976164 C -13.259527 27.976164 -12.577738 28.657953 -12.577738 29.499627 Z M -12.577738 29.499627 " transform="matrix(4.715306,0,0,4.715306,304.663348,87.599462)"/>
    <path style="fill-rule:nonzero;fill:rgb(0%,0%,0%);fill-opacity:1;stroke-width:1.934773;stroke-linecap:round;stroke-linejoin:round;stroke:rgb(0%,0%,0%);stroke-opacity:1;stroke-miterlimit:4;" d="M -23.200559 40.203633 C -23.200559 41.045307 -23.883176 41.727924 -24.72485 41.727924 C -25.566524 41.727924 -26.249142 41.045307 -26.249142 40.203633 C -26.249142 39.361959 -25.566524 38.679341 -24.72485 38.679341 C -23.883176 38.679341 -23.200559 39.361959 -23.200559 40.203633 Z M -23.200559 40.203633 " transform="matrix(4.715306,0,0,4.715306,304.663348,87.599462)"/>
    <path style="fill-rule:nonzero;fill:rgb(0%,0%,0%);fill-opacity:1;stroke-width:1.934773;stroke-linecap:round;stroke-linejoin:round;stroke:rgb(0%,0%,0%);stroke-opacity:1;stroke-miterlimit:4;" d="M -33.823379 15.932605 C -33.823379 16.774279 -34.505996 17.456068 -35.34767 17.456068 C -36.189344 17.456068 -36.871962 16.774279 -36.871962 15.932605 C -36.871962 15.090102 -36.189344 14.408313 -35.34767 14.408313 C -34.505996 14.408313 -33.823379 15.090102 -33.823379 15.932605 Z M -33.823379 15.932605 " transform="matrix(4.715306,0,0,4.715306,304.663348,87.599462)"/>
    <path style="fill-rule:nonzero;fill:rgb(0%,0%,0%);fill-opacity:1;stroke-width:1.934773;stroke-linecap:round;stroke-linejoin:round;stroke:rgb(0%,0%,0%);stroke-opacity:1;stroke-miterlimit:4;" d="M -12.577738 15.932605 C -12.577738 16.774279 -13.259527 17.456068 -14.10203 17.456068 C -14.943704 17.456068 -15.626321 16.774279 -15.626321 15.932605 C -15.626321 15.090102 -14.943704 14.408313 -14.10203 14.408313 C -13.259527 14.408313 -12.577738 15.090102 -12.577738 15.932605 Z M -12.577738 15.932605 " transform="matrix(4.715306,0,0,4.715306,304.663348,87.599462)"/>
    <path style="fill-rule:nonzero;fill:rgb(0%,0%,0%);fill-opacity:1;stroke-width:1.329357;stroke-linecap:round;stroke-linejoin:round;stroke:rgb(0%,0%,0%);stroke-opacity:1;stroke-miterlimit:4;" d="M -34.300548 5.745533 C -34.300548 6.32377 -34.769434 6.792655 -35.34767 6.792655 C -35.925907 6.792655 -36.394792 6.32377 -36.394792 5.745533 C -36.394792 5.167296 -35.925907 4.698411 -35.34767 4.698411 C -34.769434 4.698411 -34.300548 5.167296 -34.300548 5.745533 Z M -34.300548 5.745533 " transform="matrix(4.715306,0,0,4.715306,304.663348,87.599462)"/>
    <path style="fill-rule:nonzero;fill:rgb(0%,0%,0%);fill-opacity:1;stroke-width:1.329357;stroke-linecap:round;stroke-linejoin:round;stroke:rgb(0%,0%,0%);stroke-opacity:1;stroke-miterlimit:4;" d="M -13.054079 5.745533 C -13.054079 6.32377 -13.522965 6.792655 -14.10203 6.792655 C -14.680266 6.792655 -15.149152 6.32377 -15.149152 5.745533 C -15.149152 5.167296 -14.680266 4.698411 -14.10203 4.698411 C -13.522965 4.698411 -13.054079 5.167296 -13.054079 5.745533 Z M -13.054079 5.745533 " transform="matrix(4.715306,0,0,4.715306,304.663348,87.599462)"/>
  </g>
</svg>
